Newaita-dark/apps/22/com.github.arshubham.cipher.svg

<svg height="22pt" viewBox="0 0 22 22" width="22pt" xmlns="http://www.w3.org/2000/svg" xmlns:xlink="http://www.w3.org/1999/xlink"><linearGradient id="a"><stop offset="0" stop-opacity=".313725"/><stop offset=".222222" stop-opacity=".27451"/><stop offset="1" stop-opacity="0"/></linearGradient><radialGradient id="b" cx="450.90894" cy="189.57936" gradientTransform="matrix(.00000012 -.0537161 -.0966889 -.00000007 33.565841 43.721791)" gradientUnits="userSpaceOnUse" r="21.166656" xlink:href="#a"/><radialGradient id="c" cx="450.90894" cy="189.57936" gradientTransform="matrix(-.00000012 .0537161 .0966889 .00000007 -11.735631 -5.175143)" gradientUnits="userSpaceOnUse" r="21.166656" xlink:href="#a"/><radialGradient id="d" cx="450.90894" cy="189.57936" gradientTransform="matrix(-.00000012 -.0537161 .0966889 -.00000007 -11.735631 43.721791)" gradientUnits="userSpaceOnUse" r="21.166656" xlink:href="#a"/><radialGradient id="e" cx="450.90894" cy="189.57936" gradientTransform="matrix(.00000012 .0537161 -.0966889 .00000007 33.56584 -5.175143)" gradientUnits="userSpaceOnUse" r="21.166656" xlink:href="#a"/><linearGradient id="f" gradientTransform="matrix(.183701 0 0 .0343397 -35.987872 11.437737)" gradientUnits="userSpaceOnUse" x1="255.32297" x2="255.32304" y1="228.17859" y2="254.66666"><stop offset="0" stop-opacity=".27451"/><stop offset="1" stop-opacity="0"/></linearGradient><linearGradient id="g" gradientUnits="userSpaceOnUse" x1="10.9151166" x2="10.9151166" y1="19.27333515" y2="10.17740467865"><stop offset="0" stop-color="#26a69a"/><stop offset="1" stop-color="#4db6ac"/></linearGradient><linearGradient id="h" gradientUnits="userSpaceOnUse" x1="10.915104" x2="10.915104" y1="19.27332442218" y2="1.99107551259"><stop offset="0" stop-color="#bdbdbd"/><stop offset="1" stop-color="#eee"/></linearGradient><linearGradient id="i"><stop offset="0" stop-color="#26a69a"/><stop offset=".510345" stop-color="#4db6ac"/><stop offset="1" stop-color="#26a69a"/></linearGradient><linearGradient id="j" gradientUnits="userSpaceOnUse" x1="125.5" x2="181.41667" xlink:href="#i" y1="127.66667" y2="127.66667"/><linearGradient id="k" gradientUnits="userSpaceOnUse" x1="326.58334" x2="382.49994" xlink:href="#i" y1="127.66667" y2="127.66667"/><path d="m15.464844 19.273438h1.816406v-.910157h-1.816406zm0 0" fill="url(#b)"/><path d="m6.367188 19.273438h-1.820313v.910156h1.820313zm0 0" fill="url(#c)"/><path d="m6.367188 19.273438h-1.820313v-.910157h1.820313zm0 0" fill="url(#d)"/><path d="m15.464844 19.273438h1.816406v.910156h-1.816406zm0 0" fill="url(#e)"/><path d="m6.367188 19.273438h9.097656v.910156h-9.097656zm0 0" fill="url(#f)"/><path d="m5.457031 10.175781h10.914063c.503906 0 .910156.410157.910156.910157v7.277343c0 .503907-.40625.910157-.910156.910157h-10.914063c-.5 0-.910156-.40625-.910156-.910157v-7.277343c0-.5.410156-.910157.910156-.910157zm0 0" fill="url(#g)"/><path d="m10.914062 1.992188c-2.769531 0-5 2.230468-5 5v3.183593h1.363282v-3.183593c0-2.015626 1.621094-3.636719 3.636718-3.636719 2.015626 0 3.640626 1.621093 3.640626 3.636719v3.183593h1.363281v-3.183593c0-2.769532-2.230469-5-5.003907-5zm0 0" fill="url(#h)"/><path d="m10.914062 1.992188c-2.769531 0-5 2.230468-5 5v3.183593h1.363282v-3.183593c0-2.015626 1.621094-3.636719 3.636718-3.636719 2.015626 0 3.640626 1.621093 3.640626 3.636719v3.183593h1.363281v-3.183593c0-2.769532-2.230469-5-5.003907-5zm0 0" fill="#cfcfcf"/><path d="m10.914062 1.992188c-2.769531 0-5 2.230468-5 5v.230468c0-2.773437 2.230469-5.003906 5-5.003906 2.773438 0 5.003907 2.230469 5.003907 5.003906v-.230468c0-2.769532-2.230469-5-5.003907-5zm0 0" fill="#fff" fill-opacity=".784314"/><path d="m10.914062 3.128906c-2.015624 0-3.636718 1.621094-3.636718 3.636719v.226563c0-2.015626 1.621094-3.636719 3.636718-3.636719 2.015626 0 3.640626 1.621093 3.640626 3.636719v-.226563c0-2.015625-1.625-3.636719-3.640626-3.636719zm-5 6.820313v.226562h1.363282v-.226562zm8.640626 0v.226562h1.363281v-.226562zm0 0" fill-opacity=".235294"/><g stroke="#212121" stroke-linecap="round" stroke-linejoin="round"><path d="m959.908345 175.215911c-243.584472 0-439.757581 196.173109-439.757581 439.757582v280.001897h119.902653v-280.001897c0-177.277275 142.577653-319.854929 319.854928-319.854929s320.198489 142.577654 320.198489 319.854929v280.001897h119.902653v-280.001897c0-243.584473-196.173108-439.757582-440.101142-439.757582zm0 0" fill="none" stroke-width="11.338583" transform="scale(.0113699)"/><path d="m126.987873 21.795569h52.904039v211.707056h-52.904039zm0 0" fill="none" stroke-width="3" transform="matrix(.0429729 0 0 .0429729 0 9.239163)"/><path d="m126.987873 21.795569h52.904039v211.707056h-52.904039zm0 0" fill="url(#j)" stroke-width="3" transform="matrix(.0429729 0 0 .0429729 0 9.239163)"/><path d="m328.059581 21.795569h52.904039v211.707056h-52.904039zm0 0" fill="none" stroke-width="3" transform="matrix(.0429729 0 0 .0429729 0 9.239163)"/><path d="m328.059581 21.795569h52.904039v211.707056h-52.904039zm0 0" fill="url(#k)" stroke-width="3" transform="matrix(.0429729 0 0 .0429729 0 9.239163)"/></g><path d="m5.457031 19.273438c-.503906 0-.910156-.40625-.910156-.910157v-.453125c0 .503906.40625.910156.910156.910156h10.914063c.503906 0 .910156-.40625.910156-.910156v.453125c0 .503907-.40625.910157-.910156.910157zm0 0" fill-opacity=".235294"/><path d="m5.457031 10.175781c-.503906 0-.910156.40625-.910156.910157v.457031c0-.503907.40625-.910157.910156-.910157h10.914063c.503906 0 .910156.40625.910156.910157v-.457031c0-.503907-.40625-.910157-.910156-.910157zm0 0" fill="#fff" fill-opacity=".392157"/><path d="m5.457031 10.113281c-.539062 0-.972656.433594-.972656.972657v7.277343c0 .539063.433594.972657.972656.972657h10.914063c.539062 0 .976562-.433594.976562-.972657v-7.277343c0-.539063-.4375-.972657-.976562-.972657zm0 .128907h10.914063c.472656 0 .847656.375.847656.84375v7.277343c0 .46875-.375.84375-.847656.84375h-10.914063c-.46875 0-.84375-.375-.84375-.84375v-7.277343c0-.46875.375-.84375.84375-.84375zm0 0" fill="#212121"/></svg>

<?xml version="1.0" encoding="UTF-8"?>
<svg xmlns="http://www.w3.org/2000/svg" xmlns:xlink="http://www.w3.org/1999/xlink" width="22pt" height="22pt" viewBox="0 0 22 22" version="1.1">
<defs>
<radialGradient id="radial0" gradientUnits="userSpaceOnUse" cx="450.90894" cy="189.57936" fx="450.90894" fy="189.57936" r="21.166656" gradientTransform="matrix(0.000000119742,-0.0537161,-0.0966889,-0.0000000698078,33.565841,43.721791)">
<stop offset="0" style="stop-color:rgb(0%,0%,0%);stop-opacity:0.313725;"/>
<stop offset="0.222222" style="stop-color:rgb(0%,0%,0%);stop-opacity:0.27451;"/>
<stop offset="1" style="stop-color:rgb(0%,0%,0%);stop-opacity:0;"/>
</radialGradient>
<radialGradient id="radial1" gradientUnits="userSpaceOnUse" cx="450.90894" cy="189.57936" fx="450.90894" fy="189.57936" r="21.166656" gradientTransform="matrix(-0.000000119742,0.0537161,0.0966889,0.0000000698078,-11.735631,-5.175143)">
<stop offset="0" style="stop-color:rgb(0%,0%,0%);stop-opacity:0.313725;"/>
<stop offset="0.222222" style="stop-color:rgb(0%,0%,0%);stop-opacity:0.27451;"/>
<stop offset="1" style="stop-color:rgb(0%,0%,0%);stop-opacity:0;"/>
</radialGradient>
<radialGradient id="radial2" gradientUnits="userSpaceOnUse" cx="450.90894" cy="189.57936" fx="450.90894" fy="189.57936" r="21.166656" gradientTransform="matrix(-0.000000119742,-0.0537161,0.0966889,-0.0000000698078,-11.735631,43.721791)">
<stop offset="0" style="stop-color:rgb(0%,0%,0%);stop-opacity:0.313725;"/>
<stop offset="0.222222" style="stop-color:rgb(0%,0%,0%);stop-opacity:0.27451;"/>
<stop offset="1" style="stop-color:rgb(0%,0%,0%);stop-opacity:0;"/>
</radialGradient>
<radialGradient id="radial3" gradientUnits="userSpaceOnUse" cx="450.90894" cy="189.57936" fx="450.90894" fy="189.57936" r="21.166656" gradientTransform="matrix(0.000000119742,0.0537161,-0.0966889,0.0000000698078,33.56584,-5.175143)">
<stop offset="0" style="stop-color:rgb(0%,0%,0%);stop-opacity:0.313725;"/>
<stop offset="0.222222" style="stop-color:rgb(0%,0%,0%);stop-opacity:0.27451;"/>
<stop offset="1" style="stop-color:rgb(0%,0%,0%);stop-opacity:0;"/>
</radialGradient>
<linearGradient id="linear0" gradientUnits="userSpaceOnUse" x1="255.32297" y1="228.17859" x2="255.32304" y2="254.66666" gradientTransform="matrix(0.183701,0,0,0.0343397,-35.987872,11.437737)">
<stop offset="0" style="stop-color:rgb(0%,0%,0%);stop-opacity:0.27451;"/>
<stop offset="1" style="stop-color:rgb(0%,0%,0%);stop-opacity:0;"/>
</linearGradient>
<linearGradient id="linear1" gradientUnits="userSpaceOnUse" x1="254" y1="233.5" x2="254" y2="21.833334" gradientTransform="matrix(0.0429729,0,0,0.0429729,0,9.239163)">
<stop offset="0" style="stop-color:rgb(14.901961%,65.098039%,60.392157%);stop-opacity:1;"/>
<stop offset="1" style="stop-color:rgb(30.196078%,71.372549%,67.45098%);stop-opacity:1;"/>
</linearGradient>
<linearGradient id="linear2" gradientUnits="userSpaceOnUse" x1="960" y1="1695.1182" x2="960" y2="175.11812" gradientTransform="matrix(0.0113699,0,0,0.0113699,0,0)">
<stop offset="0" style="stop-color:rgb(74.117647%,74.117647%,74.117647%);stop-opacity:1;"/>
<stop offset="1" style="stop-color:rgb(93.333333%,93.333333%,93.333333%);stop-opacity:1;"/>
</linearGradient>
<linearGradient id="linear3" gradientUnits="userSpaceOnUse" x1="125.5" y1="127.66667" x2="181.41667" y2="127.66667" >
<stop offset="0" style="stop-color:rgb(14.901961%,65.098039%,60.392157%);stop-opacity:1;"/>
<stop offset="0.510345" style="stop-color:rgb(30.196078%,71.372549%,67.45098%);stop-opacity:1;"/>
<stop offset="1" style="stop-color:rgb(14.901961%,65.098039%,60.392157%);stop-opacity:1;"/>
</linearGradient>
<linearGradient id="linear4" gradientUnits="userSpaceOnUse" x1="326.58334" y1="127.66667" x2="382.49994" y2="127.66667" >
<stop offset="0" style="stop-color:rgb(14.901961%,65.098039%,60.392157%);stop-opacity:1;"/>
<stop offset="0.510345" style="stop-color:rgb(30.196078%,71.372549%,67.45098%);stop-opacity:1;"/>
<stop offset="1" style="stop-color:rgb(14.901961%,65.098039%,60.392157%);stop-opacity:1;"/>
</linearGradient>
</defs>
<g id="surface1">
<path style=" stroke:none;fill-rule:nonzero;fill:url(#radial0);" d="M 15.464844 19.273438 L 17.28125 19.273438 L 17.28125 18.363281 L 15.464844 18.363281 Z M 15.464844 19.273438 "/>
<path style=" stroke:none;fill-rule:nonzero;fill:url(#radial1);" d="M 6.367188 19.273438 L 4.546875 19.273438 L 4.546875 20.183594 L 6.367188 20.183594 Z M 6.367188 19.273438 "/>
<path style=" stroke:none;fill-rule:nonzero;fill:url(#radial2);" d="M 6.367188 19.273438 L 4.546875 19.273438 L 4.546875 18.363281 L 6.367188 18.363281 Z M 6.367188 19.273438 "/>
<path style=" stroke:none;fill-rule:nonzero;fill:url(#radial3);" d="M 15.464844 19.273438 L 17.28125 19.273438 L 17.28125 20.183594 L 15.464844 20.183594 Z M 15.464844 19.273438 "/>
<path style=" stroke:none;fill-rule:nonzero;fill:url(#linear0);" d="M 6.367188 19.273438 L 15.464844 19.273438 L 15.464844 20.183594 L 6.367188 20.183594 Z M 6.367188 19.273438 "/>
<path style=" stroke:none;fill-rule:nonzero;fill:url(#linear1);" d="M 5.457031 10.175781 L 16.371094 10.175781 C 16.875 10.175781 17.28125 10.585938 17.28125 11.085938 L 17.28125 18.363281 C 17.28125 18.867188 16.875 19.273438 16.371094 19.273438 L 5.457031 19.273438 C 4.957031 19.273438 4.546875 18.867188 4.546875 18.363281 L 4.546875 11.085938 C 4.546875 10.585938 4.957031 10.175781 5.457031 10.175781 Z M 5.457031 10.175781 "/>
<path style=" stroke:none;fill-rule:nonzero;fill:url(#linear2);" d="M 10.914062 1.992188 C 8.144531 1.992188 5.914062 4.222656 5.914062 6.992188 L 5.914062 10.175781 L 7.277344 10.175781 L 7.277344 6.992188 C 7.277344 4.976562 8.898438 3.355469 10.914062 3.355469 C 12.929688 3.355469 14.554688 4.976562 14.554688 6.992188 L 14.554688 10.175781 L 15.917969 10.175781 L 15.917969 6.992188 C 15.917969 4.222656 13.6875 1.992188 10.914062 1.992188 Z M 10.914062 1.992188 "/>
<path style=" stroke:none;fill-rule:nonzero;fill:rgb(81.176471%,81.176471%,81.176471%);fill-opacity:1;" d="M 10.914062 1.992188 C 8.144531 1.992188 5.914062 4.222656 5.914062 6.992188 L 5.914062 10.175781 L 7.277344 10.175781 L 7.277344 6.992188 C 7.277344 4.976562 8.898438 3.355469 10.914062 3.355469 C 12.929688 3.355469 14.554688 4.976562 14.554688 6.992188 L 14.554688 10.175781 L 15.917969 10.175781 L 15.917969 6.992188 C 15.917969 4.222656 13.6875 1.992188 10.914062 1.992188 Z M 10.914062 1.992188 "/>
<path style=" stroke:none;fill-rule:nonzero;fill:rgb(100%,100%,100%);fill-opacity:0.784314;" d="M 10.914062 1.992188 C 8.144531 1.992188 5.914062 4.222656 5.914062 6.992188 L 5.914062 7.222656 C 5.914062 4.449219 8.144531 2.21875 10.914062 2.21875 C 13.6875 2.21875 15.917969 4.449219 15.917969 7.222656 L 15.917969 6.992188 C 15.917969 4.222656 13.6875 1.992188 10.914062 1.992188 Z M 10.914062 1.992188 "/>
<path style=" stroke:none;fill-rule:nonzero;fill:rgb(0%,0%,0%);fill-opacity:0.235294;" d="M 10.914062 3.128906 C 8.898438 3.128906 7.277344 4.75 7.277344 6.765625 L 7.277344 6.992188 C 7.277344 4.976562 8.898438 3.355469 10.914062 3.355469 C 12.929688 3.355469 14.554688 4.976562 14.554688 6.992188 L 14.554688 6.765625 C 14.554688 4.75 12.929688 3.128906 10.914062 3.128906 Z M 5.914062 9.949219 L 5.914062 10.175781 L 7.277344 10.175781 L 7.277344 9.949219 Z M 14.554688 9.949219 L 14.554688 10.175781 L 15.917969 10.175781 L 15.917969 9.949219 Z M 14.554688 9.949219 "/>
<path style="fill:none;stroke-width:11.338583;stroke-linecap:round;stroke-linejoin:round;stroke:rgb(12.941176%,12.941176%,12.941176%);stroke-opacity:1;stroke-miterlimit:4;" d="M 959.908345 175.215911 C 716.323873 175.215911 520.150764 371.38902 520.150764 614.973493 L 520.150764 894.97539 L 640.053417 894.97539 L 640.053417 614.973493 C 640.053417 437.696218 782.63107 295.118564 959.908345 295.118564 C 1137.18562 295.118564 1280.106834 437.696218 1280.106834 614.973493 L 1280.106834 894.97539 L 1400.009487 894.97539 L 1400.009487 614.973493 C 1400.009487 371.38902 1203.836379 175.215911 959.908345 175.215911 Z M 959.908345 175.215911 " transform="matrix(0.0113699,0,0,0.0113699,0,0)"/>
<path style="fill:none;stroke-width:3;stroke-linecap:round;stroke-linejoin:round;stroke:rgb(12.941176%,12.941176%,12.941176%);stroke-opacity:1;stroke-miterlimit:4;" d="M 126.987873 21.795569 L 179.891912 21.795569 L 179.891912 233.502625 L 126.987873 233.502625 Z M 126.987873 21.795569 " transform="matrix(0.0429729,0,0,0.0429729,0,9.239163)"/>
<path style="fill-rule:nonzero;fill:url(#linear3);stroke-width:3;stroke-linecap:round;stroke-linejoin:round;stroke:rgb(12.941176%,12.941176%,12.941176%);stroke-opacity:1;stroke-miterlimit:4;" d="M 126.987873 21.795569 L 179.891912 21.795569 L 179.891912 233.502625 L 126.987873 233.502625 Z M 126.987873 21.795569 " transform="matrix(0.0429729,0,0,0.0429729,0,9.239163)"/>
<path style="fill:none;stroke-width:3;stroke-linecap:round;stroke-linejoin:round;stroke:rgb(12.941176%,12.941176%,12.941176%);stroke-opacity:1;stroke-miterlimit:4;" d="M 328.059581 21.795569 L 380.96362 21.795569 L 380.96362 233.502625 L 328.059581 233.502625 Z M 328.059581 21.795569 " transform="matrix(0.0429729,0,0,0.0429729,0,9.239163)"/>
<path style="fill-rule:nonzero;fill:url(#linear4);stroke-width:3;stroke-linecap:round;stroke-linejoin:round;stroke:rgb(12.941176%,12.941176%,12.941176%);stroke-opacity:1;stroke-miterlimit:4;" d="M 328.059581 21.795569 L 380.96362 21.795569 L 380.96362 233.502625 L 328.059581 233.502625 Z M 328.059581 21.795569 " transform="matrix(0.0429729,0,0,0.0429729,0,9.239163)"/>
<path style=" stroke:none;fill-rule:nonzero;fill:rgb(0%,0%,0%);fill-opacity:0.235294;" d="M 5.457031 19.273438 C 4.953125 19.273438 4.546875 18.867188 4.546875 18.363281 L 4.546875 17.910156 C 4.546875 18.414062 4.953125 18.820312 5.457031 18.820312 L 16.371094 18.820312 C 16.875 18.820312 17.28125 18.414062 17.28125 17.910156 L 17.28125 18.363281 C 17.28125 18.867188 16.875 19.273438 16.371094 19.273438 Z M 5.457031 19.273438 "/>
<path style=" stroke:none;fill-rule:nonzero;fill:rgb(100%,100%,100%);fill-opacity:0.392157;" d="M 5.457031 10.175781 C 4.953125 10.175781 4.546875 10.582031 4.546875 11.085938 L 4.546875 11.542969 C 4.546875 11.039062 4.953125 10.632812 5.457031 10.632812 L 16.371094 10.632812 C 16.875 10.632812 17.28125 11.039062 17.28125 11.542969 L 17.28125 11.085938 C 17.28125 10.582031 16.875 10.175781 16.371094 10.175781 Z M 5.457031 10.175781 "/>
<path style=" stroke:none;fill-rule:nonzero;fill:rgb(12.941176%,12.941176%,12.941176%);fill-opacity:1;" d="M 5.457031 10.113281 C 4.917969 10.113281 4.484375 10.546875 4.484375 11.085938 L 4.484375 18.363281 C 4.484375 18.902344 4.917969 19.335938 5.457031 19.335938 L 16.371094 19.335938 C 16.910156 19.335938 17.347656 18.902344 17.347656 18.363281 L 17.347656 11.085938 C 17.347656 10.546875 16.910156 10.113281 16.371094 10.113281 Z M 5.457031 10.242188 L 16.371094 10.242188 C 16.84375 10.242188 17.21875 10.617188 17.21875 11.085938 L 17.21875 18.363281 C 17.21875 18.832031 16.84375 19.207031 16.371094 19.207031 L 5.457031 19.207031 C 4.988281 19.207031 4.613281 18.832031 4.613281 18.363281 L 4.613281 11.085938 C 4.613281 10.617188 4.988281 10.242188 5.457031 10.242188 Z M 5.457031 10.242188 "/>
</g>
</svg>
